src/assets/icons/mainLoader/loaderLogo.svg

<svg width="367" height="344" viewBox="0 0 367 344" fill="none" xmlns="http://www.w3.org/2000/svg">
<path d="M229.645 13.2155L314.071 159.14C318.675 167.099 318.675 176.904 314.071 184.864L229.645 330.788C225.041 338.747 216.531 343.65 207.321 343.65H256.797C266.006 343.65 274.516 338.747 279.12 330.788L363.547 184.864C368.151 176.904 368.151 167.099 363.547 159.14L279.12 13.2155C274.516 5.25626 266.005 0.353577 256.797 0.353577H207.321C216.531 0.353577 225.041 5.25626 229.645 13.2155Z" fill="#39435A"/>
<path d="M229.645 13.2155L233.406 19.7176C239.8 19.8109 246.442 20.335 253.22 21.3293C266.708 23.3093 279.141 26.9182 289.764 31.6159L279.118 13.2155C274.516 5.25626 266.006 0.353577 256.797 0.353577H207.321C216.531 0.353577 225.041 5.25626 229.645 13.2155Z" fill="#2C374C"/>
<path d="M134.403 13.2155L218.829 159.14C223.433 167.099 223.433 176.904 218.829 184.864L134.403 330.788C129.798 338.747 121.289 343.65 112.079 343.65H161.555C170.764 343.65 179.274 338.747 183.878 330.788L268.305 184.864C272.909 176.904 272.909 167.099 268.305 159.14L183.878 13.2155C179.273 5.25626 170.763 0.353577 161.553 0.353577H112.079C121.287 0.353577 129.797 5.25626 134.403 13.2155Z" fill="#39435A"/>
<path d="M138.116 330.784L53.6893 184.86C49.0851 176.901 49.0851 167.096 53.6893 159.136L138.116 13.2121C142.72 5.2529 151.23 0.35022 160.439 0.35022H110.964C101.754 0.35022 93.2443 5.2529 88.64 13.2121L4.21368 159.136C-0.390564 167.096 -0.390564 176.901 4.21368 184.86L88.64 330.784C93.2443 338.744 101.754 343.646 110.964 343.646H160.439C151.23 343.646 142.72 338.744 138.116 330.784Z" fill="#435F94"/>
<path d="M186.893 330.785L102.466 184.861C97.862 176.902 97.862 167.096 102.466 159.137L186.893 13.213C191.497 5.25626 200.007 0.353577 209.216 0.353577H159.741C150.531 0.353577 142.021 5.25626 137.417 13.2155L52.9905 159.14C48.3863 167.099 48.3863 176.904 52.9905 184.864L137.417 330.788C142.021 338.747 150.531 343.65 159.741 343.65H209.216C200.007 343.647 191.497 338.745 186.893 330.785Z" fill="#377DFF"/>
<path d="M236.613 330.785L152.187 184.861C147.583 176.902 147.583 167.096 152.187 159.137L236.613 13.213C241.217 5.25626 249.727 0.353577 258.937 0.353577H209.461C200.252 0.353577 191.742 5.25626 187.138 13.2155L102.711 159.14C98.1069 167.099 98.1069 176.904 102.711 184.864L187.138 330.788C191.742 338.747 200.252 343.65 209.461 343.65H258.937C249.727 343.647 241.217 338.745 236.613 330.785Z" fill="#37DBFF"/>
</svg>

<svg xmlns="http://www.w3.org/2000/svg" width="367" height="344" fill="none"><path fill="#39435A" d="m229.645 13.216 84.426 145.924a25.681 25.681 0 0 1 0 25.724l-84.426 145.924a25.786 25.786 0 0 1-22.324 12.862h49.476a25.786 25.786 0 0 0 22.323-12.862l84.427-145.924a25.681 25.681 0 0 0 0-25.724L279.12 13.216A25.786 25.786 0 0 0 256.797.353h-49.476c9.21 0 17.72 4.902 22.324 12.862Z"/><path fill="#2C374C" d="m229.645 13.216 3.761 6.502c6.394.093 13.036.617 19.814 1.611 13.488 1.98 25.921 5.59 36.544 10.287l-10.646-18.4A25.78 25.78 0 0 0 256.797.354h-49.476c9.21 0 17.72 4.902 22.324 12.862Z"/><path fill="#39435A" d="m134.403 13.216 84.426 145.924a25.681 25.681 0 0 1 0 25.724l-84.426 145.924a25.787 25.787 0 0 1-22.324 12.862h49.476a25.786 25.786 0 0 0 22.323-12.862l84.427-145.924a25.681 25.681 0 0 0 0-25.724L183.878 13.216A25.788 25.788 0 0 0 161.553.353h-49.474a25.79 25.79 0 0 1 22.324 12.862Z"/><path fill="#435F94" d="M138.116 330.784 53.689 184.86a25.68 25.68 0 0 1 0-25.724l84.427-145.924A25.785 25.785 0 0 1 160.439.35h-49.475c-9.21 0-17.72 4.903-22.324 12.862L4.214 159.136a25.68 25.68 0 0 0 0 25.724L88.64 330.784a25.784 25.784 0 0 0 22.324 12.862h49.475a25.783 25.783 0 0 1-22.323-12.862Z"/><path fill="#377DFF" d="m186.893 330.785-84.427-145.924a25.681 25.681 0 0 1 0-25.724l84.427-145.924A25.788 25.788 0 0 1 209.216.353h-49.475c-9.21 0-17.72 4.903-22.324 12.863L52.99 159.14a25.68 25.68 0 0 0 0 25.724l84.427 145.924a25.786 25.786 0 0 0 22.324 12.862h49.475a25.793 25.793 0 0 1-22.323-12.865Z"/><path fill="#37DBFF" d="m236.613 330.785-84.426-145.924a25.681 25.681 0 0 1 0-25.724l84.426-145.924A25.788 25.788 0 0 1 258.937.353h-49.476a25.785 25.785 0 0 0-22.323 12.863L102.711 159.14a25.68 25.68 0 0 0 0 25.724l84.427 145.924a25.786 25.786 0 0 0 22.323 12.862h49.476a25.793 25.793 0 0 1-22.324-12.865Z"/></svg>
